assets/din.svg

<svg width="121" height="48" viewBox="0 0 121 48" fill="none" xmlns="http://www.w3.org/2000/svg" xmlns:xlink="http://www.w3.org/1999/xlink">
<g clip-path="url(#clip0_305_66)">
<path d="M68.6436 37.5612H56.2173V36.9813L57.2114 36.4014L58.7026 35.1588L59.3653 33.2534L62.9275 14.3654L63.2589 11.4659L63.7559 11.0517L70.2176 9.72621L70.7975 7.07526L63.9216 8.48358L63.7559 8.23505V6.32968L64.0873 5.74979V4.42431L63.7559 3.59589L62.9275 2.93315L61.8506 2.60178L62.3476 2.10473L74.0284 1.77336L74.5254 2.10473V2.60178L73.1999 3.26452L72.2058 4.42431L71.6259 5.74979V6.32968L74.8568 5.74979L80.6557 4.83852L86.0405 4.09294L90.5139 3.59589L95.733 3.26452L101.863 3.26452H107.414L111.059 3.59589L114.621 4.34147L117.52 5.16989L118.763 5.99831L119.923 7.07526L120.586 8.48358L120.917 9.312V12.2115L120.337 13.9512L119.509 15.5252L117.52 18.3418L112.55 23.3123L107.414 26.8745L102.775 29.5255L103.852 23.5609L107.414 21.0756L110.313 18.3418L111.804 16.0222L112.384 13.2056L111.804 11.7144L110.313 10.3889L108.408 9.312L103.52 8.23505L98.881 7.65516L91.0938 7.65516L83.638 8.23505L75.271 9.312L70.7975 10.1404L67.0696 33.2534V35.7387L67.7323 36.4014L68.6436 36.9813V37.5612Z" fill="#5CECFF"/>
<path d="M95.2362 34.8274L96.0647 32.2593V31.928L102.692 29.4427L102.112 32.6735V34.1647V35.2416L102.692 36.2357L103.769 36.8985L104.018 37.147L103.769 37.6441H93.3309L93.0823 37.3955H92.751L93.0823 36.8985L93.9936 36.2357L95.2362 34.8274Z" fill="#5CECFF"/>
<path d="M54.9751 1.77334L48.8448 1.77334L48.5963 2.10471V2.60177L49.5904 3.18166L50.1703 3.76156L50.4188 4.92135L50.1703 6.82672L49.8389 9.47766L49.1762 12.46L48.8448 14.4482H48.5963L48.0164 13.7855L46.4424 13.0399L44.7855 12.1286L42.466 11.7144H39.7322H37.5783L35.2587 12.1286L32.6906 12.7914L30.6195 13.7855L28.3 15.2766L26.3946 16.7678L24.9034 18.4246L23.4951 20.4957L22.8324 22.0697L22.1696 22.401L18.856 23.7265L15.0452 25.3834L10.2404 27.7029L6.42964 30.3539L3.53016 32.8392L1.54195 35.5729L0.713527 37.5612L0.299316 39.218L0.713527 40.9577L2.28753 42.7802L4.02721 44.1057L6.67816 45.514L9.49479 46.591L12.0629 47.1708L16.4535 47.8336H27.6372H32.1107L41.8861 46.8395L44.9512 46.4253L51.0816 45.514L62.5138 43.1944L74.6916 39.9636L82.2302 37.5612H83.1415L83.39 37.2298L83.1415 36.5671L81.6503 35.2416V33.3362L82.2302 30.3539L82.3959 29.3598L82.5616 27.9515L82.7273 27.2059L82.9758 25.6319L83.1415 24.6378L83.39 22.6496L84.1356 20.2471L85.0468 18.2589L86.6208 16.7678L88.3605 16.1879L90.5144 15.8565H92.1713L93.2482 15.9394L94.4908 16.4364L95.2364 16.7678L95.7335 17.182L96.6447 18.0104L97.4732 19.5844V20.7442V23.478V24.2236L97.2246 25.7976L96.6447 28.7799L96.3962 30.4367L96.0648 31.9279L102.775 29.5255L103.935 23.478L104.349 20.9927V19.5844V17.5134L103.686 15.9394L102.444 14.034L100.953 12.957L99.13 12.2115L97.3075 11.9629L95.4849 11.6316H92.9997L90.6801 11.9629L88.3605 12.6257L86.2895 14.034L85.0468 15.0281L84.7983 15.3595L84.5498 15.0281L85.0468 14.4482V13.2056L85.461 11.9629L85.0468 11.6316H84.5498L83.887 11.9629L82.7273 12.2115L76.7626 12.2115L76.3484 12.7914L76.7626 13.2056L77.7567 14.034L78.1709 14.6967V17.5962L76.7626 25.4662L76.3484 28.2828L75.7685 32.0936L75.1886 33.7504L74.2774 35.4901L73.2004 36.5671L70.8808 37.2298L66.6559 38.3067L59.9457 39.7151L48.762 41.7033L44.9512 42.2003L39.4008 42.7802L36.0871 43.1116H35.6729L29.0455 43.3601L24.2407 43.1116L21.6726 42.7802L19.7672 42.2832L17.1991 41.3719L15.8736 40.3778L14.7967 39.218L14.2168 38.1411V36.4014L14.7967 34.6617L15.8736 33.0877L16.9506 32.0107L18.856 30.1882L21.6726 28.1172V29.5255L22.1696 30.9338L23.1637 32.5906L24.8206 34.6617L26.726 35.9872L29.0455 37.2298L32.3592 37.8925L33.6019 38.1411H36.8327H39.0694L39.815 37.8925L43.6258 33.7504L44.3713 32.922L44.2057 32.5906H43.6258L42.7973 33.0877L41.2233 33.7504L39.815 33.9989H37.0812L36.0871 33.7504L34.8445 33.5019L33.6019 33.0877L32.6906 32.5906L31.3651 31.6794L30.6195 30.9338L29.7083 29.6912L29.2112 28.1172L29.0455 26.3775L29.2112 23.975L29.7083 22.401L30.8681 20.4957L33.6019 17.5134L36.0871 16.3536L38.7381 15.6908H40.1464L41.8861 15.9394L43.6258 16.6021L45.4483 17.5134L46.4424 18.4246L47.1051 19.6673L47.3537 21.3241V23.3951L46.7738 26.7088L46.0282 31.1823L45.1998 35.4901L44.9512 37.2298L45.1998 37.4783H53.7325V36.8984L52.9041 36.1528L52.2413 34.5788V32.5906L57.3776 1.27629L57.2947 0.696396H56.7977L56.1349 1.44198L54.9751 1.77334Z" fill="#5CECFF"/>
<g style="mix-blend-mode:darken">
<rect x="-620" y="-40" width="1440" height="128" fill="url(#pattern0)"/>
</g>
</g>
<defs>
<pattern id="pattern0" patternContentUnits="objectBoundingBox" width="0.00208333" height="0.0234375">
<use xlink:href="#image0_305_66" transform="scale(4.16667e-05 0.00046875)"/>
</pattern>
<clipPath id="clip0_305_66">
<rect width="121" height="48" fill="white"/>
</clipPath>
<image id="image0_305_66" width="50" height="50" xlink:href="data:image/png;base64,iVBORw0KGgoAAAANSUhEUgAAADIAAAAyCAYAAAAeP4ixAAAABHNCSVQICAgIfAhkiAAAAg1JREFUaEPdmjtOw0AQhu3QRWlTu06FRMsdKGigp+cGXINLcAbKtClACi200FBRICSYz/JatlnbydrZeGakURxnH//n3exj1mmSJL/iY9iLFLIW34hz/Sb+If5VFD6Xz6V4Jr4SPxM/L66LJMM+AAn1J8l7J346QAJ5KYOyQnXkjRGS+VHyXQ8Q35aVMik7RNNemZ6lkps2FSPepw7q2gdo58T3UjD9O5ZRF3XuCtOb8F0Ku42l3lMPdaOhD6gzwVYKuPIUHvsWGtDSBdP6IxkvYyvuqA8tXTBeEJpyCi3R5EJTWzfzghzzP9EU3/yONl8X+3eTkWLq5hvNaiCM3TGH2NAHhsbmPFMDiTHZhYpv5kNrtYuVX1gaaLPqcqYEOcTa6dAPBs2uVfILVp5aLV81zwr1D1opRHepnRYZsp849jNAOwz5tK/dtnQttqfabQ0Ie2zttjkRgoX4q3KSBSCp+KdykBSQH/Fv5SAwJG4u0cwyswCRNwAgRAC12xwQwpjabQmIho1U34POACGgrN1WgBAV1245g4lFIyAmlvFuHrlQ3LdK7Sa2uq5rAWMi+ACImXAQMCYCdICYCZkCYyKIDQhu4lgBEDMHPcCYOHpzXQyYKRzBDToMdTAmjqcdjBvNMmmhWEZdviO2qqbqde3Upy2Ru2/iFY4qpPqXapotNpnXnAiXIm4MO+qLZ38bltSbrt1m9AAAAABJRU5ErkJggg=="/>
</defs>
</svg>

<svg xmlns="http://www.w3.org/2000/svg" xmlns:xlink="http://www.w3.org/1999/xlink" width="121" height="48" fill="none"><g clip-path="url(#a)"><path fill="#5CECFF" d="M68.644 37.561H56.217v-.58l.994-.58 1.492-1.242.662-1.906 3.563-18.888.33-2.9.498-.413 6.462-1.326.58-2.65-6.876 1.408-.166-.249V6.33l.331-.58V4.424l-.331-.828-.828-.663-1.077-.331.497-.497 11.68-.332.497.332v.497l-1.325.663-.994 1.16-.58 1.325v.58l3.23-.58 5.8-.911 5.384-.746 4.474-.497 5.219-.331H107.414l3.645.33 3.562.746 2.899.829 1.243.828 1.16 1.077.663 1.409.331.828v2.9l-.58 1.74-.828 1.573-1.989 2.817-4.97 4.97-5.136 3.563-4.639 2.65 1.077-5.964 3.562-2.485 2.899-2.734 1.491-2.32.58-2.816-.58-1.492-1.491-1.325-1.905-1.077-4.888-1.077-4.639-.58h-7.787l-7.456.58-8.367 1.077-4.474.828-3.727 23.113v2.486l.662.662.912.58v.58Z"/><path fill="#5CECFF" d="m95.236 34.827.829-2.568v-.331l6.627-2.485-.58 3.23v2.569l.58.994 1.077.663.249.248-.249.497H93.331l-.249-.248h-.331l.331-.498.912-.662 1.242-1.409Z"/><path fill="#5CECFF" d="M54.975 1.773h-6.13l-.249.332v.497l.994.58.58.58.249 1.16-.249 1.905-.331 2.65-.663 2.983-.331 1.988h-.249l-.58-.662-1.574-.746-1.657-.911-2.319-.415h-4.888l-2.32.415-2.567.662-2.072.995-2.319 1.49-1.905 1.492-1.492 1.657-1.408 2.07-.663 1.575-.662.331-3.314 1.326-3.81 1.656-4.806 2.32-3.81 2.65-2.9 2.486-1.988 2.734-.828 1.988-.415 1.657.415 1.74 1.574 1.822 1.74 1.326 2.65 1.408 2.817 1.077 2.568.58 4.39.663h15.658l9.775-.995 3.065-.414 6.13-.911 11.433-2.32 12.178-3.23 7.538-2.403h.911l.249-.331-.249-.663-1.49-1.325v-1.906l.58-2.982.165-.994.166-1.409.165-.745.249-1.574.165-.994.249-1.988.746-2.403.91-1.988 1.575-1.491 1.74-.58 2.153-.331h1.657l1.077.082 1.243.497.745.332.498.414.91.828.83 1.574V24.224l-.25 1.574-.58 2.982-.248 1.657-.331 1.49 6.71-2.401 1.16-6.048.414-2.485v-3.479l-.663-1.575-1.242-1.905-1.491-1.077-1.823-.746-1.822-.248-1.823-.331H93l-2.32.33-2.32.664-2.07 1.408-1.243.994-.249.332-.248-.332.497-.58v-1.242l.414-1.243-.414-.331h-.497l-.663.33-1.16.25h-5.964l-.415.58.415.414.994.828.414.663v2.9l-1.408 7.87-.415 2.816-.58 3.81-.58 1.657-.91 1.74-1.078 1.077-2.32.663-4.224 1.077-6.71 1.408-11.184 1.988-3.81.497-5.551.58-3.314.332h-.414l-6.628.248-4.804-.248-2.568-.332-1.906-.497-2.568-.911-1.325-.994-1.077-1.16-.58-1.077v-1.74l.58-1.74 1.077-1.573 1.077-1.077 1.905-1.823 2.817-2.07v1.408l.497 1.408.994 1.657 1.657 2.07 1.905 1.326 2.32 1.243 3.313.663 1.243.248H39.069l.746-.248 3.81-4.143.746-.828-.165-.331h-.58l-.829.497-1.574.662-1.408.249h-2.734l-.994-.249-1.243-.248-1.242-.414-.911-.497-1.326-.912-.745-.745-.912-1.243-.497-1.574-.165-1.74.165-2.402.497-1.574 1.16-1.905 2.734-2.983 2.485-1.16 2.651-.662h1.408l1.74.248 1.74.663 1.822.911.994.912.663 1.242.249 1.657v2.071l-.58 3.314-.746 4.473-.828 4.308-.249 1.74.249.248h8.532v-.58l-.828-.745-.663-1.574V32.59l5.137-31.315-.083-.58h-.497l-.663.746-1.16.331Z"/><path fill="url(#b)" d="M-620-40H820V88H-620z" style="mix-blend-mode:darken"/></g><defs><clipPath id="a"><path fill="#fff" d="M0 0h121v48H0z"/></clipPath><pattern id="b" width=".002" height=".023" patternContentUnits="objectBoundingBox"><use xlink:href="#c" transform="scale(.00004 .00047)"/></pattern><image xlink:href="data:image/png;base64,iVBORw0KGgoAAAANSUhEUgAAADIAAAAyCAYAAAAeP4ixAAAABHNCSVQICAgIfAhkiAAAAg1JREFUaEPdmjtOw0AQhu3QRWlTu06FRMsdKGigp+cGXINLcAbKtClACi200FBRICSYz/JatlnbydrZeGakURxnH//n3exj1mmSJL/iY9iLFLIW34hz/Sb+If5VFD6Xz6V4Jr4SPxM/L66LJMM+AAn1J8l7J346QAJ5KYOyQnXkjRGS+VHyXQ8Q35aVMik7RNNemZ6lkps2FSPepw7q2gdo58T3UjD9O5ZRF3XuCtOb8F0Ku42l3lMPdaOhD6gzwVYKuPIUHvsWGtDSBdP6IxkvYyvuqA8tXTBeEJpyCi3R5EJTWzfzghzzP9EU3/yONl8X+3eTkWLq5hvNaiCM3TGH2NAHhsbmPFMDiTHZhYpv5kNrtYuVX1gaaLPqcqYEOcTa6dAPBs2uVfILVp5aLV81zwr1D1opRHepnRYZsp849jNAOwz5tK/dtnQttqfabQ0Ie2zttjkRgoX4q3KSBSCp+KdykBSQH/Fv5SAwJG4u0cwyswCRNwAgRAC12xwQwpjabQmIho1U34POACGgrN1WgBAV1245g4lFIyAmlvFuHrlQ3LdK7Sa2uq5rAWMi+ACImXAQMCYCdICYCZkCYyKIDQhu4lgBEDMHPcCYOHpzXQyYKRzBDToMdTAmjqcdjBvNMmmhWEZdviO2qqbqde3Upy2Ru2/iFY4qpPqXapotNpnXnAiXIm4MO+qLZ38bltSbrt1m9AAAAABJRU5ErkJggg==" id="c" width="50" height="50"/></defs></svg>
